X: 25527
T: Maria's
R: jig
M: 6/8
K: Cmajor
G,|CEG FED|C2E G,2G,|CEG FED|E3E2G|
AFA GEG|FDF ECE|F2A GFE|D3D2G,|
G, (3CEG FED|C2E G,2G,|CEG FED|E3E2G|
AFA GEG|FDF ECE|F2A GFE|D3 F2G||
AcA G2c|cFd cBA|_e=ee edc|efe ecG|
Fdc Edc|FdB cGE|F2A GFE|D3 F2G|
AcA G2c|cFd cBA|_e=ee edc|efe edc|
Adc Gdc|FdB cGE|F2A GFE|D3 G,2||

